24x24/apps/modelio.svg

<svg height="24" width="24" xmlns="http://www.w3.org/2000/svg"><circle cx="12" cy="12.5" opacity=".2" r="10"/><circle cx="12" cy="12" fill="#c21d1e" r="10"/><path d="m12 2a10 10 0 0 0 -10 10 10 10 0 0 0 .01.293 10 10 0 0 1 9.99-9.793 10 10 0 0 1 9.99 9.707 10 10 0 0 0 .01-.207 10 10 0 0 0 -10-10z" fill="#f4f4f7" opacity=".2"/><path d="m19.709 7.875-7.709 4.625 7.708 4.625a9 9 0 0 0 1.292-4.625 9 9 0 0 0 -1.291-4.625z" opacity=".2"/><path d="m19.709 7.375-7.709 4.625 7.708 4.625a9 9 0 0 0 1.292-4.625 9 9 0 0 0 -1.291-4.625z" fill="#f4f4f7"/><circle cx="12" cy="12.5" opacity=".1" r="5"/><circle cx="12" cy="12" fill="#951612" r="5"/><path d="m9.5 9.5c-.277 0-.5.223-.5.5v4a.499.499 0 1 0 1 0v-4c0-.277-.223-.5-.5-.5zm4 0c-.277 0-.5.223-.5.5v4a.499.499 0 1 0 1 0v-4c0-.277-.223-.5-.5-.5zm-2 1c-.277 0-.5.223-.5.5v3a.499.499 0 1 0 1 0v-3c0-.277-.223-.5-.5-.5z" opacity=".2"/><rect fill="#f4f4f7" height="5" ry=".5" width="1" x="9" y="9"/><rect fill="#ccc" height="4" ry=".5" width="1" x="11" y="10"/><rect fill="#f4f4f7" height="5" ry=".5" width="1" x="13" y="9"/></svg>

<svg width="24" height="24" xmlns="http://www.w3.org/2000/svg"><circle cx="12" cy="12.5" r="10" style="opacity:.2"/><circle cx="12" cy="12" r="10" style="fill:#c21d1e"/><path d="M12 2A10 10 0 0 0 2 12a10 10 0 0 0 .01.293A10 10 0 0 1 12 2.5a10 10 0 0 1 9.99 9.707A10 10 0 0 0 22 12 10 10 0 0 0 12 2z" style="fill:#f4f4f7;opacity:.2"/><path d="M19.709 7.875 12 12.5l7.708 4.625A9 9 0 0 0 21 12.5a9 9 0 0 0-1.291-4.625z" style="opacity:.2"/><path d="M19.709 7.375 12 12l7.708 4.625A9 9 0 0 0 21 12a9 9 0 0 0-1.291-4.625z" style="fill:#f4f4f7"/><circle cx="12" cy="12.5" r="5" style="opacity:.1"/><circle cx="12" cy="12" r="5" style="fill:#951612"/><path d="M9.5 9.5c-.277 0-.5.223-.5.5v4a.499.499 0 1 0 1 0v-4c0-.277-.223-.5-.5-.5zm4 0c-.277 0-.5.223-.5.5v4a.499.499 0 1 0 1 0v-4c0-.277-.223-.5-.5-.5zm-2 1c-.277 0-.5.223-.5.5v3a.499.499 0 1 0 1 0v-3c0-.277-.223-.5-.5-.5z" style="opacity:.2"/><rect x="9" y="9" width="1" height="5" ry=".5" style="fill:#f4f4f7"/><rect x="11" y="10" width="1" height="4" ry=".5" style="fill:#ccc"/><rect x="13" y="9" width="1" height="5" ry=".5" style="fill:#f4f4f7"/></svg>
